public/Img/Home/quality__call.svg

<svg width="48" height="48" viewBox="0 0 48 48" fill="none" xmlns="http://www.w3.org/2000/svg">
<g clip-path="url(#clip0_262_343)">
<path d="M24.0005 0C13.881 0 5.64746 8.23352 5.64746 18.353V35.2939C5.64746 37.6296 7.54736 39.5295 9.88269 39.5295C12.2184 39.5295 14.1183 37.6296 14.1183 35.2939V21.1765C14.1183 18.8412 12.2184 16.9413 9.88269 16.9413C9.40735 16.9413 8.95764 17.0376 8.53027 17.1826C9.13269 9.16589 15.8336 2.82349 24.0005 2.82349C32.163 2.82349 38.8621 9.16003 39.47 17.1713C39.0452 17.0259 38.5929 16.9413 38.1183 16.9413C35.7826 16.9413 33.8827 18.8412 33.8827 21.1765V35.2939C33.8827 37.6296 35.7826 39.5295 38.1183 39.5295C38.6156 39.5295 39.0862 39.4277 39.53 39.2695V40.9413C39.53 41.7202 38.8958 42.353 38.1183 42.353H27.9757C27.3909 40.7131 25.8385 39.5295 24.0005 39.5295C21.6652 39.5295 19.7653 41.4294 19.7653 43.7648C19.7653 46.1001 21.6652 48 24.0005 48C25.8385 48 27.3909 46.816 27.9757 45.1765H38.1183C40.4536 45.1765 42.3535 43.2766 42.3535 40.9413C42.3535 32.4496 42.3535 26.8539 42.3535 18.353C42.3535 8.23352 34.12 0 24.0005 0V0Z" fill="#6B7CFF"/>
<path d="M45.1768 20.0248V36.4457C46.8163 35.8612 48.0002 34.3088 48.0002 32.4705V24C48.0002 22.162 46.8163 20.6096 45.1768 20.0248Z" fill="#6B7CFF"/>
<path d="M0 24V32.4705C0 34.3088 1.18396 35.8612 2.82349 36.4457V20.0248C1.18396 20.6096 0 22.162 0 24Z" fill="#6B7CFF"/>
</g>
<defs>
<clipPath id="clip0_262_343">
<rect width="48" height="48" fill="white"/>
</clipPath>
</defs>
</svg>

<svg width="48" height="48" fill="none" xmlns="http://www.w3.org/2000/svg"><g clip-path="url(#a)" fill="#6B7CFF"><path d="M24 0C13.881 0 5.647 8.234 5.647 18.353v16.94a4.24 4.24 0 0 0 4.236 4.236 4.24 4.24 0 0 0 4.235-4.235V21.177a4.24 4.24 0 0 0-4.235-4.236 4.19 4.19 0 0 0-1.353.242C9.133 9.166 15.834 2.823 24 2.823c8.163 0 14.862 6.337 15.47 14.348a4.159 4.159 0 0 0-1.352-.23 4.24 4.24 0 0 0-4.235 4.236v14.117a4.24 4.24 0 0 0 4.235 4.236c.498 0 .968-.102 1.412-.26v1.671c0 .78-.634 1.412-1.412 1.412H27.976c-.585-1.64-2.137-2.824-3.976-2.824a4.24 4.24 0 0 0-4.235 4.236A4.24 4.24 0 0 0 24 48c1.838 0 3.39-1.184 3.976-2.824h10.142a4.24 4.24 0 0 0 4.235-4.235V18.353C42.353 8.233 34.12 0 24 0ZM45.177 20.025v16.42C46.817 35.862 48 34.31 48 32.472V24c0-1.838-1.184-3.39-2.823-3.975ZM0 24v8.47c0 1.839 1.184 3.391 2.823 3.976V20.025C1.184 20.61 0 22.162 0 24Z"/></g><defs><clipPath id="a"><path fill="#fff" d="M0 0h48v48H0z"/></clipPath></defs></svg>
